packages/react-icons/icons/boat.svg

<svg width="24" height="25" viewBox="0 0 24 25" xmlns="http://www.w3.org/2000/svg"><path fill-rule="evenodd" clip-rule="evenodd" d="M5.99953 5.22715C5.99953 4.73009 6.40247 4.32715 6.89953 4.32715H9.9153C10.4124 4.32715 10.8153 4.73009 10.8153 5.22715V7.23075H11.2628C11.7599 7.23075 12.1628 7.63369 12.1628 8.13075V10.642H19.2696C19.5386 10.642 19.7936 10.7623 19.9645 10.9701C20.1355 11.1778 20.2045 11.4512 20.1527 11.7152L18.7522 18.8543C18.9992 18.8102 19.2862 18.6826 19.62 18.4155C20.0082 18.105 20.5745 18.168 20.885 18.5561C21.1956 18.9442 21.1326 19.5106 20.7445 19.8211C20.0849 20.3488 19.3471 20.6729 18.5458 20.6729C17.7445 20.6729 17.0068 20.3488 16.3472 19.8211C15.9158 19.476 15.5626 19.3637 15.273 19.3637C14.9833 19.3637 14.6301 19.476 14.1988 19.8211C13.5392 20.3488 12.8014 20.6729 12.0001 20.6729C11.1988 20.6729 10.4611 20.3488 9.80148 19.8211C9.37013 19.476 9.01693 19.3637 8.72728 19.3637C8.43764 19.3637 8.08443 19.476 7.65308 19.8211C6.99348 20.3488 6.25573 20.6729 5.45443 20.6729C4.65312 20.6729 3.91538 20.3488 3.25578 19.8211C2.86764 19.5106 2.80471 18.9442 3.11522 18.5561C3.42573 18.168 3.99209 18.105 4.38023 18.4155C4.71383 18.6824 5.0007 18.81 5.24757 18.8542L3.84709 11.7152C3.7953 11.4512 3.86434 11.1778 4.0353 10.9701C4.18959 10.7826 4.41227 10.6663 4.652 10.6454V8.13075C4.652 7.63369 5.05494 7.23075 5.552 7.23075H5.99953V5.22715ZM6.93813 18.1215C7.48912 17.77 8.08797 17.5637 8.72728 17.5637C9.52859 17.5637 10.2663 17.8878 10.9259 18.4155C11.3573 18.7606 11.7105 18.8729 12.0001 18.8729C12.2898 18.8729 12.643 18.7606 13.0743 18.4155C13.7339 17.8878 14.4717 17.5637 15.273 17.5637C15.9121 17.5637 16.5109 17.77 17.0617 18.1212L18.1759 12.442H5.82397L6.93813 18.1215ZM10.3628 9.03075V10.642H6.452V9.03075H10.3628ZM9.0153 6.12715V7.23075H7.79953V6.12715H9.0153ZM13.2086 7.89293C13.0429 7.89293 12.9086 8.02724 12.9086 8.19292V9.68295C12.9086 9.84864 13.0429 9.98295 13.2086 9.98295H14.6986C14.8643 9.98295 14.9986 9.84864 14.9986 9.68295V8.19292C14.9986 8.02724 14.8643 7.89293 14.6986 7.89293H13.2086ZM12.9086 5.61323C12.9086 5.44754 13.0429 5.31323 13.2086 5.31323H14.6986C14.8643 5.31323 14.9986 5.44754 14.9986 5.61323V7.10325C14.9986 7.26894 14.8643 7.40325 14.6986 7.40325H13.2086C13.0429 7.40325 12.9086 7.26894 12.9086 7.10325V5.61323ZM15.7874 7.89293C15.6217 7.89293 15.4874 8.02724 15.4874 8.19292V9.68295C15.4874 9.84864 15.6217 9.98295 15.7874 9.98295H17.2775C17.4431 9.98295 17.5775 9.84864 17.5775 9.68295V8.19292C17.5775 8.02724 17.4431 7.89293 17.2775 7.89293H15.7874Z"/></svg>

<svg xmlns="http://www.w3.org/2000/svg" width="24" height="25"><path fill-rule="evenodd" d="M6 5.227a.9.9 0 0 1 .9-.9h3.015a.9.9 0 0 1 .9.9v2.004h.448a.9.9 0 0 1 .9.9v2.511h7.107a.9.9 0 0 1 .883 1.073l-1.4 7.14c.246-.045.533-.172.867-.44a.9.9 0 0 1 1.124 1.406c-.66.528-1.397.852-2.198.852-.802 0-1.54-.324-2.199-.852-.431-.345-.784-.457-1.074-.457-.29 0-.643.112-1.074.457-.66.528-1.398.852-2.199.852-.801 0-1.539-.324-2.199-.852-.43-.345-.784-.457-1.074-.457-.29 0-.643.112-1.074.457-.66.528-1.397.852-2.199.852-.8 0-1.539-.324-2.198-.852a.9.9 0 0 1 1.124-1.405c.334.266.62.394.868.438l-1.4-7.139a.9.9 0 0 1 .804-1.07V8.131a.9.9 0 0 1 .9-.9H6V5.227Zm.938 12.895c.551-.352 1.15-.558 1.79-.558.8 0 1.538.324 2.198.852.431.345.784.457 1.074.457.29 0 .643-.112 1.074-.457.66-.528 1.398-.852 2.199-.852.64 0 1.238.206 1.789.557l1.114-5.679H5.824l1.114 5.68Zm3.425-9.091v1.611H6.452V9.031h3.91ZM9.015 6.127v1.104H7.8V6.127h1.215Zm4.194 1.766a.3.3 0 0 0-.3.3v1.49a.3.3 0 0 0 .3.3h1.49a.3.3 0 0 0 .3-.3v-1.49a.3.3 0 0 0-.3-.3h-1.49Zm-.3-2.28a.3.3 0 0 1 .3-.3h1.49a.3.3 0 0 1 .3.3v1.49a.3.3 0 0 1-.3.3h-1.49a.3.3 0 0 1-.3-.3v-1.49Zm2.878 2.28a.3.3 0 0 0-.3.3v1.49a.3.3 0 0 0 .3.3h1.49a.3.3 0 0 0 .3-.3v-1.49a.3.3 0 0 0-.3-.3h-1.49Z" clip-rule="evenodd"/></svg>
